X: 11001
M: 6/8
L: 1/8
K: G
!f!{e}d^cd |\
=cAf afd | gdB bgd | afd d'c'a | b2g {e}d^cd |\
=cAf afd | gdB bgd | afd [dd'][cc'][Aa] | "^D.C."[G3g3] |]
z2!f!B |\
efg fga | gfg e2b | c'ba gfe | (e3 ^d2)B |\
efg fga | gab abc' | bag (fb)^d | "^D.C."e3 |]


